!!!COM: des Prez, Josquin
!!!CDT: ~1450-1521/08/27
!!!OTL@@FRE: Se congie prens
!!!AGN: Chanson
!!!SCT: NJE 30.11
!!!SCA: New Josquin Edition 30.11
!!!voices: 6
**kern	**text	**kern	**text	**kern	**text	**kern	**text	**kern	**text	**kern	**text
*staff6	*	*staff5	*	*staff4	*	*staff3	*	*staff2	*	*staff1	*
*Ivox	*	*Ivox	*	*Ivox	*	*Ivox	*	*Ivox	*	*Ivox	*
*I"Bassus	*	*I"Tenor	*	*I"Sexta pars	*	*I"Altus	*	*I"Quinta pars	*	*I"Superius	*
*I'B	*	*I'T	*	*I'Sx	*	*I'Ct	*	*I'Q	*	*I'S	*
*clefF4	*	*clefGv2	*	*clefGv2	*	*clefGv2	*	*clefGv2	*	*clefG2	*
*k[b-]	*	*k[b-]	*	*k[b-]	*	*k[b-]	*	*k[b-]	*	*k[b-]	*
*M2/1	*	*M2/1	*	*M2/1	*	*M2/1	*	*M2/1	*	*M2/1	*
*met(C|)	*	*met(C|)	*	*met(C|)	*	*met(C|)	*	*met(C|)	*	*met(C|)	*
=1-	=1-	=1-	=1-	=1-	=1-	=1-	=1-	=1-	=1-	=1-	=1-
!	!	!	!	!LO:TX:Z=6:t=Canon at the upper 5th (Sexta pars-->Quinta pars, 2 breves); switches directions in mm. 53-71	!	!	!	!	!	!	!
1r	.	0r	.	0r	.	0g	Se	0r	.	0r	.
1G	Se	.	.	.	.	.	.	.	.	.	.
=2	=2	=2	=2	=2	=2	=2	=2	=2	=2	=2	=2
1B-	con-	0r	.	0r	.	1f	con-	0r	.	0r	.
1A	-gi&eacute;	.	.	.	.	1f	-gi&eacute;	.	.	.	.
=3	=3	=3	=3	=3	=3	=3	=3	=3	=3	=3	=3
0G	prens,	1r	.	0r	.	2g\	prens,	0r	.	0g	Se
.	.	.	.	.	.	2G/	se	.	.	.	.
.	.	1G	Se	.	.	2.B-\	con-	.	.	.	.
.	.	.	.	.	.	4c\	.	.	.	.	.
=4	=4	=4	=4	=4	=4	=4	=4	=4	=4	=4	=4
0r	.	1B-	con-	0r	.	2d\	.	0r	.	1f	con-
.	.	.	.	.	.	2B-\	.	.	.	.	.
.	.	1A	-gi&eacute;	.	.	2.c\	-gi&eacute;	.	.	1f	-gi&eacute;
.	.	.	.	.	.	4d\	.	.	.	.	.
=5	=5	=5	=5	=5	=5	=5	=5	=5	=5	=5	=5
1r	.	0G	prens,	0G	Se	2e-i\	.	0r	.	0g	prens
.	.	.	.	.	.	2d\	.	.	.	.	.
1GG	se	.	.	.	.	2e-i\	.	.	.	.	.
.	.	.	.	.	.	[2d\	.	.	.	.	.
=6	=6	=6	=6	=6	=6	=6	=6	=6	=6	=6	=6
1BB-	con-	0r	.	1F	con-	4d\]	.	0r	.	1r	.
.	.	.	.	.	.	4c\	.	.	.	.	.
.	.	.	.	.	.	4d\	.	.	.	.	.
.	.	.	.	.	.	4B-\	.	.	.	.	.
1AA	-gi&eacute;	.	.	1F	-gi&eacute;	1c	.	.	.	1a	de
=7	=7	=7	=7	=7	=7	=7	=7	=7	=7	=7	=7
0GG	prens	1r	.	0G	prens	1B-	prens	0d	Se	1.b-	mes
.	.	1D	se	.	.	2r	.	.	.	.	.
.	.	.	.	.	.	2G/	de	.	.	2b-\	bel-
=8	=8	=8	=8	=8	=8	=8	=8	=8	=8	=8	=8
0r	.	1F	con-	0r	.	2A/	mes	1c	con-	1a	-les
.	.	.	.	.	.	2F/	bel-	.	.	.	.
.	.	1E	-gi&eacute;	.	.	1G	-les	1c	-gi&eacute;	1g	a-
=9	=9	=9	=9	=9	=9	=9	=9	=9	=9	=9	=9
1r	.	0D	prens	1r	.	1A	a-	0d	prens	2f/	.
.	.	.	.	.	.	.	.	.	.	2.a/	-mours,
1F	de	.	.	1A	de	1D	-mours,	.	.	.	.
.	.	.	.	.	.	.	.	.	.	4g/	.
.	.	.	.	.	.	.	.	.	.	4f/	.
.	.	.	.	.	.	.	.	.	.	4e/	.
=10	=10	=10	=10	=10	=10	=10	=10	=10	=10	=10	=10
1.G	mes	0r	.	1.B-	mes	2r	.	0r	.	0d	.
.	.	.	.	.	.	2d\	de	.	.	.	.
.	.	.	.	.	.	2d\	mes	.	.	.	.
2D\	bel-	.	.	2B-\	bel-	2d\	bel-	.	.	.	.
=11	=11	=11	=11	=11	=11	=11	=11	=11	=11	=11	=11
1F	-les	1r	.	1A	-les	4c\	-les	1r	.	0r	.
.	.	.	.	.	.	4A/	.	.	.	.	.
.	.	.	.	.	.	2.c\	a-	.	.	.	.
1E	a-	1c	de	1G	a-	.	.	1e	de	.	.
.	.	.	.	.	.	4B-\	.	.	.	.	.
.	.	.	.	.	.	2G/	.	.	.	.	.
=12	=12	=12	=12	=12	=12	=12	=12	=12	=12	=12	=12
0D	-mours,	1.d	mes	0F	-mours,	2A/	-mours,	1.f	mes	1r	.
.	.	.	.	.	.	2D/	de	.	.	.	.
.	.	.	.	.	.	2.F/	mes	.	.	1a	de
.	.	2A/	bel-	.	.	.	.	2f\	bel-	.	.
.	.	.	.	.	.	4E/	.	.	.	.	.
=13	=13	=13	=13	=13	=13	=13	=13	=13	=13	=13	=13
0r	.	1c	-les	0r	.	4C/	bel-	1e	-les	2.g/	mes
.	.	.	.	.	.	4D/	.	.	.	.	.
.	.	.	.	.	.	4E/	.	.	.	.	.
.	.	.	.	.	.	4F/	.	.	.	4a/	.
.	.	1B-	a-	.	.	2G/	-les	1d	a-	2b-\	.
.	.	.	.	.	.	4D/	a-	.	.	2f/	bel-
.	.	.	.	.	.	4E/	.	.	.	.	.
=14	=14	=14	=14	=14	=14	=14	=14	=14	=14	=14	=14
0r	.	0A	-mours,	0r	.	4F/	.	0c	-mours,	2.a/	-les
.	.	.	.	.	.	4G/	.	.	.	.	.
.	.	.	.	.	.	4A/	.	.	.	.	.
.	.	.	.	.	.	4B-\	.	.	.	4g/	.
.	.	.	.	.	.	4c\	.	.	.	1e	a-
.	.	.	.	.	.	4d\	.	.	.	.	.
.	.	.	.	.	.	4e\	.	.	.	.	.
.	.	.	.	.	.	4c\	.	.	.	.	.
=15	=15	=15	=15	=15	=15	=15	=15	=15	=15	=15	=15
1r	.	0r	.	0B-	Vrays	2d\	-mours	0r	.	1d	-mours,
.	.	.	.	.	.	2G/	Vrays	.	.	.	.
1GG	Vrays	.	.	.	.	2.B-\	a-	.	.	1r	.
.	.	.	.	.	.	4c\	-mou-	.	.	.	.
=16	=16	=16	=16	=16	=16	=16	=16	=16	=16	=16	=16
1.BB-	a-	0r	.	1B-	a-	1d	-reulx,	0r	.	1d	Vrays
.	.	.	.	1B-	-mou-	1r	.	.	.	[1f	a-
2C/	-mou-	.	.	.	.	.	.	.	.	.	.
=17	=17	=17	=17	=17	=17	=17	=17	=17	=17	=17	=17
0D	-reulx,	1r	.	1.A	-reulx,	1D	vrays	0f	Vrays	2f/]	.
.	.	.	.	.	.	.	.	.	.	2g/	-mou-
.	.	1F	Vray	.	.	[1F	a-	.	.	1a	-reulx,
.	.	.	.	2G/	.	.	.	.	.	.	.
=18	=18	=18	=18	=18	=18	=18	=18	=18	=18	=18	=18
1r	.	1.A	a-	0F	.	2F/]	.	1f	a-	1r	.
.	.	.	.	.	.	2G/	-mou-	.	.	.	.
1D	ne	.	.	.	.	2A/	-reulx,	1f	-mou-	2r	.
.	.	2B-\	-mou-	.	.	2F/	ne	.	.	2d/	ne
=19	=19	=19	=19	=19	=19	=19	=19	=19	=19	=19	=19
1C	m'en	0c	-reuilx,	1r	.	2G/	m'en	1.e	-reulx,	1e	m'en
.	.	.	.	.	.	4C/	veuil-	.	.	.	.
.	.	.	.	.	.	4D/	.	.	.	.	.
1C	veuil-	.	.	1G	ne	4E/	.	.	.	1g	veuil-
.	.	.	.	.	.	4F/	.	.	.	.	.
.	.	.	.	.	.	4G/	.	2d\	.	.	.
.	.	.	.	.	.	4E/	.	.	.	.	.
=20	=20	=20	=20	=20	=20	=20	=20	=20	=20	=20	=20
1.F	-lez	0r	.	1.A	m'en	4F/	-lez	0c	.	2.f/	-lez
.	.	.	.	.	.	4G/	.	.	.	.	.
.	.	.	.	.	.	4A/	.	.	.	.	.
.	.	.	.	.	.	4B-\	.	.	.	4e/	.
.	.	.	.	.	.	4c\	.	.	.	2f/	.
.	.	.	.	.	.	4d\	.	.	.	.	.
2E\	.	.	.	2G/	veuil-	[2e\	blas-	.	.	[2g/	blas-
=21	=21	=21	=21	=21	=21	=21	=21	=21	=21	=21	=21
2C/	.	0r	.	1G	-lez	4e\]	.	1r	.	4g/]	.
.	.	.	.	.	.	4d\	.	.	.	4f/	.
2E\	.	.	.	.	.	2.c\	.	.	.	4g/	.
.	.	.	.	.	.	.	.	.	.	4e/	.
1D	blas-	.	.	1F	blas-	.	.	1d	ne	1f	.
.	.	.	.	.	.	4Bni\	.	.	.	.	.
.	.	.	.	.	.	4Bni\	.	.	.	.	.
.	.	.	.	.	.	4A/	.	.	.	.	.
=22	=22	=22	=22	=22	=22	=22	=22	=22	=22	=22	=22
4C/	.	2r	.	0G	-mer,	3c\V	-mer,	1.e	m'en	2e/	-mer,
4D\	.	.	.	.	.	.	.	.	.	.	.
.	.	.	.	.	.	3G/	.	.	.	.	.
4E\	.	4C/	ne	.	.	.	.	.	.	2.g/	blas-
.	.	.	.	.	.	3c\Z	ne	.	.	.	.
4F\	.	4D/	.	.	.	.	.	.	.	.	.
2G\	-mer,	4E/	.	.	.	3.B-\V	m'en	.	.	.	.
.	.	4F/	.	.	.	.	.	.	.	4a/	.
2GG/	.	[2G/	m'en	.	.	6c\	.	2d\	veuil-	[2b-\	.
.	.	.	.	.	.	3d\Z	.	.	.	.	.
=23	=23	=23	=23	=23	=23	=23	=23	=23	=23	=23	=23
0r	.	4G/]	.	1r	.	3G/V	veuil-	1d	-lez	4b-\]	.
.	.	4F/	.	.	.	.	.	.	.	4a/	.
.	.	.	.	.	.	3B-\	.	.	.	.	.
.	.	2D/	vueil-	.	.	.	.	.	.	2f/	.
.	.	.	.	.	.	3A/Z	.	.	.	.	.
.	.	1E	-lez	1G	ne	3G/V	-lez	1c	blas-	1g	.
.	.	.	.	.	.	3E/	.	.	.	.	.
.	.	.	.	.	.	3C/Z	.	.	.	.	.
=24	=24	=24	=24	=24	=24	=24	=24	=24	=24	=24	=24
2r	.	2.D/	blas-	1.A	m'en	3.F/V	blas-	0d	-mer,	1f	-mer,
2D\	ne	.	.	.	.	6G/	.	.	.	.	.
.	.	.	.	.	.	3A/Z	.	.	.	.	.
.	.	4E/	.	.	.	.	.	.	.	.	.
2D\	m'en	2F/	.	.	.	2D/	-mer,	.	.	1r	.
2GG/	veuil-	2G/	.	2G/	vueil-	2d\	ne	.	.	.	.
=25	=25	=25	=25	=25	=25	=25	=25	=25	=25	=25	=25
2C/	-lez	1C	-mer,	1G	-lez	2e\	m'en	1r	.	0r	.
2E\	.	.	.	.	.	2.c\	veuil-	.	.	.	.
1D	blas-	1r	.	1F	blas-	.	.	1d	ne	.	.
.	.	.	.	.	.	4Bni\	.	.	.	.	.
.	.	.	.	.	.	4Bni\	.	.	.	.	.
.	.	.	.	.	.	4A/	.	.	.	.	.
=26	=26	=26	=26	=26	=26	=26	=26	=26	=26	=26	=26
4C/	.	2r	.	0G	-mer.	2.c\	-lez	1.e	m'en	0r	.
4D\	.	.	.	.	.	.	.	.	.	.	.
4E\	.	4C/	blas-	.	.	.	.	.	.	.	.
4F\	.	4D/	.	.	.	4B-\	.	.	.	.	.
2G\	-mer.	4E/	.	.	.	4G/	.	.	.	.	.
.	.	4F/	.	.	.	4A/	.	.	.	.	.
2GG/	.	4G/	.	.	.	4B-\	.	2d\	vueil-	.	.
.	.	4A/	.	.	.	4c\	.	.	.	.	.
=27	=27	=27	=27	=27	=27	=27	=27	=27	=27	=27	=27
0r	.	2B-\	.	0r	.	4d\	.	1d	-lez	1r	.
.	.	.	.	.	.	4G/	.	.	.	.	.
.	.	2G/	.	.	.	2.g\	blas-	.	.	.	.
.	.	1A	.	.	.	.	.	1c	blas-	2r	.
.	.	.	.	.	.	4f#i\	.	.	.	.	.
.	.	.	.	.	.	4f#i\	.	.	.	2a/	J'en
.	.	.	.	.	.	4e\	.	.	.	.	.
=28	=28	=28	=28	=28	=28	=28	=28	=28	=28	=28	=28
1r	.	0G	-mer.	0G	J'en	1g	-mer.	0d	-mer.	2b-\	ai
.	.	.	.	.	.	.	.	.	.	1g	souf-
1GG	J'en	.	.	.	.	2r	.	.	.	.	.
.	.	.	.	.	.	2d\	J'en	.	.	4f/	.
.	.	.	.	.	.	.	.	.	.	4e/	.
=29	=29	=29	=29	=29	=29	=29	=29	=29	=29	=29	=29
1BB-	ai	0r	.	1F	ai	2.d\	ai	0r	.	1d	-fert
.	.	.	.	.	.	4B-\	.	.	.	.	.
1AA	souf-	.	.	1F	souf-	1c	souf-	.	.	2r	.
.	.	.	.	.	.	.	.	.	.	2a/	de
=30	=30	=30	=30	=30	=30	=30	=30	=30	=30	=30	=30
0GG	-fert	1r	.	0G	-fert	1B-	-fert	0d	J'en	1.b-	plus
.	.	1D	J'en	.	.	2r	.	.	.	.	.
.	.	.	.	.	.	2G/	de	.	.	2b-\	grief-
=31	=31	=31	=31	=31	=31	=31	=31	=31	=31	=31	=31
0r	.	1F	ai	0r	.	2A/	plus	1c	ai	1a	-ves
.	.	.	.	.	.	2F/	grief-	.	.	.	.
.	.	1E	souf-	.	.	1G	-ves	1c	souf-	1g	dou-
=32	=32	=32	=32	=32	=32	=32	=32	=32	=32	=32	=32
1r	.	0D	-fert	1r	.	1A	dou-	0d	-fert	2f/	.
.	.	.	.	.	.	.	.	.	.	2.a/	-leurs,
1F	de	.	.	1A	de	1D	-leurs,	.	.	.	.
.	.	.	.	.	.	.	.	.	.	4g/	.
.	.	.	.	.	.	.	.	.	.	4f/	.
.	.	.	.	.	.	.	.	.	.	4e/	.
=33	=33	=33	=33	=33	=33	=33	=33	=33	=33	=33	=33
1.G	plus	0r	.	1.B-	plus	2r	.	0r	.	0d	.
.	.	.	.	.	.	2d\	de	.	.	.	.
.	.	.	.	.	.	2d\	plus	.	.	.	.
2D\	grief-	.	.	2B-\	grief-	2d\	grief-	.	.	.	.
=34	=34	=34	=34	=34	=34	=34	=34	=34	=34	=34	=34
1F	-ves	1r	.	1A	-ves	4c\	-ves	1r	.	0r	.
.	.	.	.	.	.	4A/	.	.	.	.	.
.	.	.	.	.	.	2.c\	dou-	.	.	.	.
1E	dou-	1c	de	1G	dou-	.	.	1e	de	.	.
.	.	.	.	.	.	4B-\	.	.	.	.	.
.	.	.	.	.	.	2G/	.	.	.	.	.
=35	=35	=35	=35	=35	=35	=35	=35	=35	=35	=35	=35
0D	-leurs	1.d	plus	0F	-leurs	2A/	-leurs,	1.f	plus	1r	.
.	.	.	.	.	.	2D/	de	.	.	.	.
.	.	.	.	.	.	2.F/	plus	.	.	1a	de
.	.	2A/	grief-	.	.	.	.	2f\	grief-	.	.
.	.	.	.	.	.	4E/	.	.	.	.	.
=36	=36	=36	=36	=36	=36	=36	=36	=36	=36	=36	=36
0r	.	1c	-ves	0r	.	4C/	grief-	1e	-ves	2.g/	plus
.	.	.	.	.	.	4D/	.	.	.	.	.
.	.	.	.	.	.	4E/	.	.	.	.	.
.	.	.	.	.	.	4F/	.	.	.	4a/	.
.	.	1B-	dou-	.	.	2G/	-ves	1d	dou-	2b-\	grief-
.	.	.	.	.	.	4D/	dou-	.	.	2f/	-ves
.	.	.	.	.	.	4E/	.	.	.	.	.
=37	=37	=37	=37	=37	=37	=37	=37	=37	=37	=37	=37
0r	.	0A	-leurs	0r	.	4F/	.	0c	-leurs	2.a/	dou-
.	.	.	.	.	.	4G/	.	.	.	.	.
.	.	.	.	.	.	4A/	.	.	.	.	.
.	.	.	.	.	.	4B-\	.	.	.	8g/L	.
.	.	.	.	.	.	.	.	.	.	8f/J	.
.	.	.	.	.	.	4c\	.	.	.	1e	.
.	.	.	.	.	.	4d\	.	.	.	.	.
.	.	.	.	.	.	4e\	.	.	.	.	.
.	.	.	.	.	.	4c\	.	.	.	.	.
=38	=38	=38	=38	=38	=38	=38	=38	=38	=38	=38	=38
1r	.	0r	.	0B-	Que	2d\	-leurs	0r	.	0d	-leurs
.	.	.	.	.	.	2G/	Que	.	.	.	.
1GG	Que	.	.	.	.	2.B-\	ne	.	.	.	.
.	.	.	.	.	.	4c\	font	.	.	.	.
=39	=39	=39	=39	=39	=39	=39	=39	=39	=39	=39	=39
2.BB-/	ne	0r	.	1B-	ne	1d	ceulx,	0r	.	2r	.
.	.	.	.	.	.	.	.	.	.	2d/	Que
4C/	font	.	.	.	.	.	.	.	.	.	.
2D\	ceulx	.	.	1B-	font	1r	.	.	.	2f/	ne
2E\	qui	.	.	.	.	.	.	.	.	2g/	font
=40	=40	=40	=40	=40	=40	=40	=40	=40	=40	=40	=40
1.F	nai-	0r	.	1.A	ceulx	2r	.	0f	Que	0a	ceulx
.	.	.	.	.	.	2D/	que	.	.	.	.
.	.	.	.	.	.	2F/	ne	.	.	.	.
2E\	-gent	.	.	2G/	.	2G/	font	.	.	.	.
=41	=41	=41	=41	=41	=41	=41	=41	=41	=41	=41	=41
1D	en	2r	.	0F	.	1A	ceulx,	1f	ne	1r	.
.	.	2F/	Que	.	.	.	.	.	.	.	.
1D	la	2A/	ne	.	.	2r	.	1f	font	1d	qui
.	.	2B-\	font	.	.	2F/	qui	.	.	.	.
=42	=42	=42	=42	=42	=42	=42	=42	=42	=42	=42	=42
1C	mer,	0c	ceulx	1r	.	2G/	nai-	1.e	ceulx	1e	n'ai
.	.	.	.	.	.	4C/	.	.	.	.	.
.	.	.	.	.	.	4D/	.	.	.	.	.
1C	qui	.	.	1G	qui	4E/	.	.	.	1g	-gent
.	.	.	.	.	.	4F/	.	.	.	.	.
.	.	.	.	.	.	4G/	.	2d\	.	.	.
.	.	.	.	.	.	4E/	.	.	.	.	.
=43	=43	=43	=43	=43	=43	=43	=43	=43	=43	=43	=43
1.F	nai-	0r	.	1.A	nai-	4F/	-gent	0c	.	2.f/	en
.	.	.	.	.	.	4G/	.	.	.	.	.
.	.	.	.	.	.	4A/	.	.	.	.	.
.	.	.	.	.	.	4B-\	.	.	.	4e/	.
.	.	.	.	.	.	4c\	.	.	.	2f/	.
.	.	.	.	.	.	4d\	.	.	.	.	.
2E\	-gent	.	.	2G/	-gent	[2e\	en	.	.	[2g/	.
=44	=44	=44	=44	=44	=44	=44	=44	=44	=44	=44	=44
2C/	en	0r	.	1G	en	4e\]	.	1r	.	4g/]	.
.	.	.	.	.	.	4d\	.	.	.	4f/	.
2E\	.	.	.	.	.	2.c	la	.	.	4g/	.
.	.	.	.	.	.	.	.	.	.	4e/	.
1D	la	.	.	1F	la	.	.	1d	qui	1f	la
.	.	.	.	.	.	4Bni\	.	.	.	.	.
.	.	.	.	.	.	4Bni\	.	.	.	.	.
.	.	.	.	.	.	4Ani\	.	.	.	.	.
=45	=45	=45	=45	=45	=45	=45	=45	=45	=45	=45	=45
4C/	mer,	2r	.	0G	mer,	3c\V	mer,	1.e	nai-	2e/	mer,
4D\	.	.	.	.	.	.	.	.	.	.	.
.	.	.	.	.	.	3G/	.	.	.	.	.
4E\	.	4C/	qui	.	.	.	.	.	.	2.g/	en
.	.	.	.	.	.	3c\Z	qui	.	.	.	.
4F\	.	4D/	.	.	.	.	.	.	.	.	.
2G\	.	4E/	.	.	.	3.B-\V	nai-	.	.	.	.
.	.	4F/	.	.	.	.	.	.	.	4a/	.
2GG/	.	[2G/	n'ai-	.	.	6c\	.	2d\	-gent	[2b-\	.
.	.	.	.	.	.	3d\Z	.	.	.	.	.
=46	=46	=46	=46	=46	=46	=46	=46	=46	=46	=46	=46
0r	.	4G/]	.	1r	.	3G/V	-gent	1d	en	4b-\]	.
.	.	4F/	.	.	.	.	.	.	.	4a/	.
.	.	.	.	.	.	3B-\	.	.	.	.	.
.	.	2D/	.	.	.	.	.	.	.	2f/	.
.	.	.	.	.	.	3A/Z	.	.	.	.	.
.	.	1E	-gent	1G	qui	3G/V	en	1c	la	1g	la
.	.	.	.	.	.	3E/	.	.	.	.	.
.	.	.	.	.	.	3C/Z	.	.	.	.	.
=47	=47	=47	=47	=47	=47	=47	=47	=47	=47	=47	=47
2r	.	2.D/	en	1.A	n'ai-	3.F/V	la	0d	mer,	1f	mer.
2D\	qui	.	.	.	.	6G/	.	.	.	.	.
.	.	.	.	.	.	3A/Z	.	.	.	.	.
.	.	4E/	.	.	.	.	.	.	.	.	.
2D\	nai-	2F/	.	.	.	2D/	mer,	.	.	1r	.
2GG/	-gent	2G/	la	2G/	-gent	2d\	qui	.	.	.	.
=48	=48	=48	=48	=48	=48	=48	=48	=48	=48	=48	=48
2C/	en	1C	mer,	1G	en	2e\	nai-	1r	.	0r	.
2E\	.	.	.	.	.	2.c\	.	.	.	.	.
1D	la	1r	.	1F	la	.	.	1d	qui	.	.
.	.	.	.	.	.	4Bni\	.	.	.	.	.
.	.	.	.	.	.	4Bni\	.	.	.	.	.
.	.	.	.	.	.	4A/	.	.	.	.	.
=49	=49	=49	=49	=49	=49	=49	=49	=49	=49	=49	=49
4C/	mer.	2r	.	0G	mer.	2.c\	-gent	1.e	n'ai-	0r	.
4D\	.	.	.	.	.	.	.	.	.	.	.
4E\	.	4C/	qui	.	.	.	.	.	.	.	.
4F\	.	4D/	.	.	.	4B-\	.	.	.	.	.
2G\	.	4E/	.	.	.	4G/	en	.	.	.	.
.	.	4F/	.	.	.	4A/	.	.	.	.	.
2GG/	.	4G/	.	.	.	4B-\	.	2d\	-gent	.	.
.	.	4A/	.	.	.	4c\	.	.	.	.	.
=50	=50	=50	=50	=50	=50	=50	=50	=50	=50	=50	=50
0r	.	2B-\	nai-	0r	.	4d\	.	1d	en	0r	.
.	.	.	.	.	.	4G/	.	.	.	.	.
.	.	2G/	.	.	.	2.g	la	.	.	.	.
.	.	1A	-gent	.	.	.	.	1c	la	.	.
.	.	.	.	.	.	4f#i\	.	.	.	.	.
.	.	.	.	.	.	4f#i\	.	.	.	.	.
.	.	.	.	.	.	4e\	.	.	.	.	.
=51	=51	=51	=51	=51	=51	=51	=51	=51	=51	=51	=51
1r	.	1G	en	0r	.	1g	mer.	0d	mer.	2r	.
.	.	.	.	.	.	.	.	.	.	2.g/	Car
2r	.	1B-	la	.	.	1G	.	.	.	.	.
.	.	.	.	.	.	.	.	.	.	4a/	.
2G\	Car	.	.	.	.	.	.	.	.	4b-\	.
.	.	.	.	.	.	.	.	.	.	4g/	.
=52	=52	=52	=52	=52	=52	=52	=52	=52	=52	=52	=52
2F\	.	2A/	mer.	0r	.	1r	.	0r	.	2a/	.
1G	tant	2G/	.	.	.	.	.	.	.	1b-	tant
.	.	1d	.	.	.	2r	.	.	.	.	.
4F\	l'ay-	.	.	.	.	[2d\	Car	.	.	4a/	l'ay-
4E\	.	.	.	.	.	.	.	.	.	4g/	.
=53	=53	=53	=53	=53	=53	=53	=53	=53	=53	=53	=53
1D	-mer,	2r	.	0r	.	4d\]	.	0a	Car	1f	-mer,
.	.	.	.	.	.	4e\	.	.	.	.	.
.	.	2d\	Car	.	.	4f\	.	.	.	.	.
.	.	.	.	.	.	4d\	.	.	.	.	.
2r	.	2c\	.	.	.	2e\	.	.	.	1r	.
[2D\	car	[2d\	tant	.	.	[2f\	tant	.	.	.	.
=54	=54	=54	=54	=54	=54	=54	=54	=54	=54	=54	=54
4D\]	.	2d\]	.	0r	.	2f\]	.	1a	tant	0r	.
4E\	.	.	.	.	.	.	.	.	.	.	.
4F\	.	4c\	l'ay-	.	.	4e\	l'ay-	.	.	.	.
4G\	.	4B-\	.	.	.	4d\	.	.	.	.	.
2A\	tant	1A	-mer,	.	.	1c	-mer,	1a	l'ay	.	.
2F\	l'ay-	.	.	.	.	.	.	.	.	.	.
=55	=55	=55	=55	=55	=55	=55	=55	=55	=55	=55	=55
1G	-mer	2B-\	car	0d	Car	1r	.	1d	-mer	2r	.
.	.	2G/	tant	.	.	.	.	.	.	2.d/	car
1D	.	1A	l'ay-	.	.	2r	.	1a	m'est	.	.
.	.	.	.	.	.	.	.	.	.	4e/	.
.	.	.	.	.	.	[2d\	car	.	.	4f/	.
.	.	.	.	.	.	.	.	.	.	4g/	.
=56	=56	=56	=56	=56	=56	=56	=56	=56	=56	=56	=56
0r	.	0D	-mer.	1d	tant	4d\]	.	1a	tous-	2a/	tant,
.	.	.	.	.	.	4e\	.	.	.	.	.
.	.	.	.	.	.	4f\	.	.	.	2d/	.
.	.	.	.	.	.	4g\	.	.	.	.	.
.	.	.	.	1d	l'ay-	2a\	tant	1a	-jours	2r	.
.	.	.	.	.	.	2f\	l'ay-	.	.	2a/	car
=57	=57	=57	=57	=57	=57	=57	=57	=57	=57	=57	=57
1r	.	2r	.	1G	-mer	1g	-mer	1g	tant	2b-\	tant
.	.	2.G/	m'est	.	.	.	.	.	.	4g/	l'ay-
.	.	.	.	.	.	.	.	.	.	4a/	.
2r	.	.	.	1d	m'est	1G	.	1g	a-	4b-\	.
.	.	4A/	.	.	.	.	.	.	.	4cc\	.
2GG/	m'est	4B-\	.	.	.	.	.	.	.	[2dd\	-mer
.	.	4c\	.	.	.	.	.	.	.	.	.
=58	=58	=58	=58	=58	=58	=58	=58	=58	=58	=58	=58
2.BB-/	tous-	2d\	.	1d	tous-	2r	.	0f	-mer,	2dd\]	.
.	.	2B-\	tous-	.	.	2.d\	m'est	.	.	2d/	m'est
4C/	.	.	.	.	.	.	.	.	.	.	.
2.D\	-jours	1F	-jours,	1d	-jours	.	.	.	.	2.f/	tous-
.	.	.	.	.	.	4e\	.	.	.	.	.
.	.	.	.	.	.	[2f\	tous-	.	.	.	.
4E\	.	.	.	.	.	.	.	.	.	4g/	.
=59	=59	=59	=59	=59	=59	=59	=59	=59	=59	=59	=59
2F\	.	1r	.	1c	tant	2f\]	.	0r	.	2a/	-jours
2G\	tant	.	.	.	.	2e\	.	.	.	2.b-\	tant
1F	a-	2r	.	1c	a-	1f	-jours,	.	.	.	.
.	.	.	.	.	.	.	.	.	.	4a/	.
.	.	2c\	m'est	.	.	.	.	.	.	4a/	a-
.	.	.	.	.	.	.	.	.	.	4g/	.
=60	=60	=60	=60	=60	=60	=60	=60	=60	=60	=60	=60
0B-\	-mer,	2d\	tous-	0B-	-mer,	2r	.	0f	Qu'a-	0b-	-mer,
.	.	2.B-\	-jours	.	.	2d\	m'est	.	.	.	.
.	.	.	.	.	.	2d\	tous-	.	.	.	.
.	.	4c\	.	.	.	.	.	.	.	.	.
.	.	2d\	.	.	.	[2B-\	-jours	.	.	.	.
=61	=61	=61	=61	=61	=61	=61	=61	=61	=61	=61	=61
2r	.	1G	.	0r	.	4B-\]	.	[0g	-voir	2r	.
.	.	.	.	.	.	4c\	.	.	.	.	.
2B-\	Qu'a-	.	.	.	.	2d\	.	.	.	2dd\	Qu'a-
2B-\	-voir	2d\	tant	.	.	2G/	.	.	.	2dd\	-voir
[2B-\	ne	2G/	a-	.	.	2d\	tant	.	.	[2dd\	ne
=62	=62	=62	=62	=62	=62	=62	=62	=62	=62	=62	=62
4B-\]	.	1d	-mer,	0B-	Qu'a-	2G/	a-	1g]	.	4dd\]	.
4A\	.	.	.	.	.	.	.	.	.	4cc\	.
4G\	.	.	.	.	.	2.d\	-mer,	.	.	4b-\	.
4F\	.	.	.	.	.	.	.	.	.	4a/	.
1G	.	1r	.	.	.	.	.	1g	ne	1b-	.
.	.	.	.	.	.	4c\	.	.	.	.	.
.	.	.	.	.	.	4d\	.	.	.	.	.
.	.	.	.	.	.	4e\	.	.	.	.	.
=63	=63	=63	=63	=63	=63	=63	=63	=63	=63	=63	=63
0F	puis	1r	.	[0c	-voir	2f\	.	0a	puis	0a	puis
.	.	.	.	.	.	2F/	Qu'a-	.	.	.	.
.	.	2r	.	.	.	2.A/	-voir	.	.	.	.
.	.	2A/	Qu'a-	.	.	.	.	.	.	.	.
.	.	.	.	.	.	4B-\	.	.	.	.	.
=64	=64	=64	=64	=64	=64	=64	=64	=64	=64	=64	=64
2r	.	2A/	-voir	1c]	.	1c	.	0r	.	1r	.
2A\	qu'a-	2.F/	ne	.	.	.	.	.	.	.	.
2A\	-voir	.	.	1c	ne	1F	ne	.	.	1a	del-
.	.	4G/	.	.	.	.	.	.	.	.	.
[2F\	ne	2A/	.	.	.	.	.	.	.	.	.
=65	=65	=65	=65	=65	=65	=65	=65	=65	=65	=65	=65
4F\]	.	1D	puis	0d	puis	0f	puis,	1r	.	1a	-le ung
4G\	.	.	.	.	.	.	.	.	.	.	.
2A\	.	.	.	.	.	.	.	.	.	.	.
1D	puis	1A	.	.	.	.	.	1f	del-	1a	tout
=66	=66	=66	=66	=66	=66	=66	=66	=66	=66	=66	=66
2r	.	0r	.	0r	.	0r	.	1.g	-le ung	2.b-\	seul
2.G\	del	.	.	.	.	.	.	.	.	.	.
.	.	.	.	.	.	.	.	.	.	4cc\	.
.	.	.	.	.	.	.	.	.	.	2dd\	.
4A\	.	.	.	.	.	.	.	.	.	.	.
2B-\	.	.	.	.	.	.	.	2f\	tout	2dd\	re-
=67	=67	=67	=67	=67	=67	=67	=67	=67	=67	=67	=67
1c	-le ung	0r	.	1r	.	1r	.	1e	seul	0g	-gard,
1G	.	.	.	1B-	del-	2r	.	1d	re-	.	.
.	.	.	.	.	.	2d\	qu'a-	.	.	.	.
=68	=68	=68	=68	=68	=68	=68	=68	=68	=68	=68	=68
0r	.	2r	.	1.c	-le ung	2e\	-voir	0c	c	1r	.
.	.	2.C/	del-	.	.	4c\	ne	.	.	.	.
.	.	.	.	.	.	4d\	.	.	.	.	.
.	.	.	.	.	.	4e\	.	.	.	1g	del-
.	.	4D/	.	.	.	4f\	.	.	.	.	.
.	.	2E/	.	2B-\	tout	[2g\	puis	.	.	.	.
=69	=69	=69	=69	=69	=69	=69	=69	=69	=69	=69	=69
1r	.	1F	-le ung	1A	seul	2g\]	.	0r	.	1.cc	-le ung
.	.	.	.	.	.	1f	.	.	.	.	.
1C	del-	1C	tout	1G	re-	.	.	.	.	.	.
.	.	.	.	.	.	2e\	del-	.	.	2b-\	tout
=70	=70	=70	=70	=70	=70	=70	=70	=70	=70	=70	=70
1.D	-le ung	2F/	seul	0F	re-	1.f	-le ung	0r	.	2.a/	seul
.	.	4D/	.	.	.	.	.	.	.	.	.
.	.	4E/	.	.	.	.	.	.	.	4g/	re-
.	.	4F/	.	.	.	.	.	.	.	1f	-gard,
.	.	4G/	.	.	.	.	.	.	.	.	.
2C/	tout	[2A/	.	.	.	2e\	tout	.	.	.	.
=71	=71	=71	=71	=71	=71	=71	=71	=71	=71	=71	=71
1BB-	seul	4A/]	.	0r	.	1d	seul	0r	.	1r	.
.	.	4G/	.	.	.	.	.	.	.	.	.
.	.	2.G/	.	.	.	.	.	.	.	.	.
1AA	re-	.	.	.	.	1c	re-	.	.	1a	Fors
.	.	4F#i/	.	.	.	.	.	.	.	.	.
.	.	4F#i/	re-	.	.	.	.	.	.	.	.
.	.	4E/	.	.	.	.	.	.	.	.	.
=72	=72	=72	=72	=72	=72	=72	=72	=72	=72	=72	=72
1GG	-gard,	0G	-gard,	0G	Fors	1B-	-gard,	0r	.	2b-\	que
.	.	.	.	.	.	.	.	.	.	1g	ri-
2r	.	.	.	.	.	2G/	Fors	.	.	.	.
2GG/	Fors	.	.	.	.	[2d\	que	.	.	4f/	.
.	.	.	.	.	.	.	.	.	.	4e/	.
=73	=73	=73	=73	=73	=73	=73	=73	=73	=73	=73	=73
1BB-	que	0r	.	1F	que	4d\]	.	0r	.	1d	-gueur
.	.	.	.	.	.	4c\	.	.	.	.	.
.	.	.	.	.	.	4d\	.	.	.	.	.
.	.	.	.	.	.	4B-\	.	.	.	.	.
1AA	ri-	.	.	1F	ri-	1c	ri-	.	.	2r	.
.	.	.	.	.	.	.	.	.	.	2a/	pour
=74	=74	=74	=74	=74	=74	=74	=74	=74	=74	=74	=74
0GG	-geur	1r	.	0G	-geur	1B-	-geur	0d	Fors	1.b-	non
.	.	1D/	Fors	.	.	2r	.	.	.	.	.
.	.	.	.	.	.	2G/	pour	.	.	2b-\	cueur
=75	=75	=75	=75	=75	=75	=75	=75	=75	=75	=75	=75
0r	.	1F	que	0r	.	2A/	mon	1c	que	1a	en-
.	.	.	.	.	.	2F/	cueur	.	.	.	.
.	.	1E	ri-	.	.	1G	en-	1c	ri-	1g	-ta-
=76	=76	=76	=76	=76	=76	=76	=76	=76	=76	=76	=76
1r	.	0D	-geur	1r	.	1A	-ta-	0d	-geur	2f/	.
.	.	.	.	.	.	.	.	.	.	2.a/	-mer,
1F	pour	.	.	1A	pour	1D	-mer,	.	.	.	.
.	.	.	.	.	.	.	.	.	.	4g/	.
.	.	.	.	.	.	.	.	.	.	4f/	.
.	.	.	.	.	.	.	.	.	.	4e/	.
=77	=77	=77	=77	=77	=77	=77	=77	=77	=77	=77	=77
1.G	mon	0r	.	1.B-	mon	2r	.	0r	.	0d	.
.	.	.	.	.	.	2d\	pour	.	.	.	.
.	.	.	.	.	.	2d\	mon	.	.	.	.
2D\	cueur	.	.	2B-\	cueur	2d\	cueur	.	.	.	.
=78	=78	=78	=78	=78	=78	=78	=78	=78	=78	=78	=78
1F	en-	1r	.	1A	en-	4c\	en-	1r	.	0r	.
.	.	.	.	.	.	4A/	.	.	.	.	.
.	.	.	.	.	.	2.c\	-ta-	.	.	.	.
1E	-ta-	1c	pour	1G	-ta-	.	.	1e	pour	.	.
.	.	.	.	.	.	4B-\	.	.	.	.	.
.	.	.	.	.	.	2G/	.	.	.	.	.
=79	=79	=79	=79	=79	=79	=79	=79	=79	=79	=79	=79
0D	-mer,	1.d	mon	0F	-mer,	2A/	-mer,	1.f	mon	1r	.
.	.	.	.	.	.	2D/	pour	.	.	.	.
.	.	.	.	.	.	2.F/	mon	.	.	1a	pour
.	.	2A/	cueur	.	.	.	.	2f\	cueur	.	.
.	.	.	.	.	.	4E/	.	.	.	.	.
=80	=80	=80	=80	=80	=80	=80	=80	=80	=80	=80	=80
0r	.	1c	en-	0r	.	4C/	cueur	1e	en-	2.g/	mon
.	.	.	.	.	.	4D/	.	.	.	.	.
.	.	.	.	.	.	4E/	.	.	.	.	.
.	.	.	.	.	.	4F/	.	.	.	4a/	.
.	.	1B-	-ta-	.	.	2G/	.	1d	-ta-	2b-\	cueur
.	.	.	.	.	.	4D/	en-	.	.	2f/	en-
.	.	.	.	.	.	4E/	.	.	.	.	.
=81	=81	=81	=81	=81	=81	=81	=81	=81	=81	=81	=81
0r	.	0A	-mer,	0r	.	4F/	.	0c	-mer,	2.a/	-ta-
.	.	.	.	.	.	4G/	.	.	.	.	.
.	.	.	.	.	.	4A/	.	.	.	.	.
.	.	.	.	.	.	4B-\	.	.	.	4g/	.
.	.	.	.	.	.	4c\	-ta-	.	.	1e	.
.	.	.	.	.	.	4d\	.	.	.	.	.
.	.	.	.	.	.	4e\	.	.	.	.	.
.	.	.	.	.	.	4c\	.	.	.	.	.
=82	=82	=82	=82	=82	=82	=82	=82	=82	=82	=82	=82
1r	.	0r	.	0B-	Se	2d\	-mer,	0r	.	0d	-mer,
.	.	.	.	.	.	2G/	Si	.	.	.	.
1GG	Si	.	.	.	.	2.B-\	prens	.	.	.	.
.	.	.	.	.	.	4c\	con-	.	.	.	.
=83	=83	=83	=83	=83	=83	=83	=83	=83	=83	=83	=83
2.BB-/	prens	0r	.	1B-	prens	1d	gi&eacute;,	0r	.	2r	.
.	.	.	.	.	.	.	.	.	.	2d/	Si
4C/	con-	.	.	.	.	.	.	.	.	.	.
2D\	gi&eacute;	.	.	1B-	con-	1r	.	.	.	2f/	prens
2E\	a-	.	.	.	.	.	.	.	.	2g/	con-
=84	=84	=84	=84	=84	=84	=84	=84	=84	=84	=84	=84
1.F	-vant	0r	.	1.A	-gi&eacute;	2r	.	0f	Si	0a	-gi&eacute;
.	.	.	.	.	.	2D/	si	.	.	.	.
.	.	.	.	.	.	2F/	prens	.	.	.	.
2E\	qu'il	.	.	2G/	.	2G/	con-	.	.	.	.
=85	=85	=85	=85	=85	=85	=85	=85	=85	=85	=85	=85
1D	soit	2r	.	0F	.	1A	gi&eacute;	1f	prens	1r	.
.	.	2F/	Si	.	.	.	.	.	.	.	.
1D	plus	2A/	prens	.	.	2r	.	1f	con-	1d	a-
.	.	2B-\	con-	.	.	2F/	a-	.	.	.	.
=86	=86	=86	=86	=86	=86	=86	=86	=86	=86	=86	=86
1C	tard,	0c	gi&eacute;	1r	.	2G/	-vant	1.e	-gi&eacute;	1e	-vant
.	.	.	.	.	.	4C/	qu'il	.	.	.	.
.	.	.	.	.	.	4D/	.	.	.	.	.
1C	a-	.	.	1G	a-	4E/	.	.	.	1g	qu'il
.	.	.	.	.	.	4F/	.	.	.	.	.
.	.	.	.	.	.	4G/	.	2d\	.	.	.
.	.	.	.	.	.	4E/	.	.	.	.	.
=87	=87	=87	=87	=87	=87	=87	=87	=87	=87	=87	=87
1.F	-vant	0r	.	1.A	-vant	4F/	.	0c	.	2.f/	soit
.	.	.	.	.	.	4G/	.	.	.	.	.
.	.	.	.	.	.	4A/	.	.	.	.	.
.	.	.	.	.	.	4B-\	.	.	.	4e/	.
.	.	.	.	.	.	4c\	.	.	.	2f/	.
.	.	.	.	.	.	4d\	.	.	.	.	.
2E\	qu'il	.	.	2G/	qu'il	[2e\	soit	.	.	[2g/	plus
=88	=88	=88	=88	=88	=88	=88	=88	=88	=88	=88	=88
2C/	soit	0r	.	1G	soit	4e\]	.	1r	.	4g/]	.
.	.	.	.	.	.	4d\	.	.	.	4f/	.
2E\	.	.	.	.	.	2.c	plus	.	.	4g/	.
.	.	.	.	.	.	.	.	.	.	4e/	.
1D	plus	.	.	1F	plus	.	.	1d	a-	1f	.
.	.	.	.	.	.	4Bni\	.	.	.	.	.
.	.	.	.	.	.	4Bni\	.	.	.	.	.
.	.	.	.	.	.	4A	.	.	.	.	.
=89	=89	=89	=89	=89	=89	=89	=89	=89	=89	=89	=89
4C/	tard,	2r	.	0G	tard,	3c\V	tard,	1.e	-vant	2e/	tard,
4D\	.	.	.	.	.	.	.	.	.	.	.
.	.	.	.	.	.	3G/	.	.	.	.	.
4E\	.	4C/	a-	.	.	.	.	.	.	2.g/	qu'il
.	.	.	.	.	.	3c\Z	a-	.	.	.	.
4F\	.	4D/	.	.	.	.	.	.	.	.	.
2G\	.	4E/	.	.	.	3.B-\V	-vant	.	.	.	.
.	.	4F/	.	.	.	.	.	.	.	4a/	.
2GG/	.	[2G/	-vant	.	.	6c\	.	2d\	qu'il	[2b-\	soit
.	.	.	.	.	.	3d\Z	.	.	.	.	.
=90	=90	=90	=90	=90	=90	=90	=90	=90	=90	=90	=90
0r	.	4G/]	.	1r	.	3G/V	qu'il	1d	soit	4b-\]	.
.	.	4F/	.	.	.	.	.	.	.	4a/	.
.	.	.	.	.	.	3B-\	.	.	.	.	.
.	.	2D/	qu'il	.	.	.	.	.	.	2f/	.
.	.	.	.	.	.	3A/Z	.	.	.	.	.
.	.	1E	soit,	1G	a-	3G/V	soit	1c	plus	1g	.
.	.	.	.	.	.	3E/	.	.	.	.	.
.	.	.	.	.	.	3C/Z	.	.	.	.	.
=91	=91	=91	=91	=91	=91	=91	=91	=91	=91	=91	=91
2r	.	1D	.	1.A	-vant	3.F/V	plus	0d	tard,	2.f/	plus
2D\	a-	.	.	.	.	6G/	.	.	.	.	.
.	.	.	.	.	.	3A/Z	.	.	.	.	.
.	.	.	.	.	.	.	.	.	.	4e/	.
2D\	-vant	1r	.	.	.	2D/	tard,	.	.	2f/	.
2GG/	qu'il	.	.	2G/	qu'il	2d\	a-	.	.	[2g/	.
=92	=92	=92	=92	=92	=92	=92	=92	=92	=92	=92	=92
2C/	soit	0r	.	1G	soit	2e\	-vant	1r	.	4g/]	.
.	.	.	.	.	.	.	.	.	.	4f/	.
2E\	plus	.	.	.	.	2.c	qu'il	.	.	4g/	.
.	.	.	.	.	.	.	.	.	.	4e/	.
1D	tard,	.	.	1F	plus	.	.	1d	a-	1f	.
.	.	.	.	.	.	4Bni\	.	.	.	.	.
.	.	.	.	.	.	4Bni\	.	.	.	.	.
.	.	.	.	.	.	4A	.	.	.	.	.
=93	=93	=93	=93	=93	=93	=93	=93	=93	=93	=93	=93
2.C/	a-	4C/	a-	1G	tard,	2.c\	soit	1.e	-vant	1e/	tard,
.	.	4D/	.	.	.	.	.	.	.	.	.
.	.	4E/	.	.	.	.	.	.	.	.	.
4D\	.	4F/	.	.	.	4B-\	.	.	.	.	.
4E\	.	2.G/	-vant	1r	.	4G/	plus	.	.	2r	.
4F\	.	.	.	.	.	4A/	.	.	.	.	.
[2G\	-vant,	.	.	.	.	4B-\	.	2d\	qu'il	[2b-\	a-
.	.	4A/	.	.	.	4c\	.	.	.	.	.
=94	=94	=94	=94	=94	=94	=94	=94	=94	=94	=94	=94
2G\]	.	2.B-\	.	1G	a-	2d\	tard,	1d	soit	4b-\]	.
.	.	.	.	.	.	.	.	.	.	4cc\	.
2B-\	a-	.	.	.	.	2G/	.	.	.	4dd\	.
.	.	4A/	.	.	.	.	.	.	.	4b-\	.
4A\	-vant	2.F/	.	1A	-vant	1r	.	1c	plus	2cc\	-vant
4G\	.	.	.	.	.	.	.	.	.	.	.
4F\	.	.	.	.	.	.	.	.	.	[2a/	qu'il
4E\	.	4G/	.	.	.	.	.	.	.	.	.
=95	=95	=95	=95	=95	=95	=95	=95	=95	=95	=95	=95
2D\	.	2A/	.	2F/	qu'il	0r	.	1d	tard,	4a/]	.
.	.	.	.	.	.	.	.	.	.	4g/	.
2BB-/	qu'il	2d\	qu'il	2G/	soit	.	.	.	.	2.g/	soit
2C/	soit	2c\	soit	1A	plus	.	.	1r	.	.	.
.	.	.	.	.	.	.	.	.	.	4f#i/	.
2D\	plus	2A/	plus	.	.	.	.	.	.	4f#i/	.
.	.	.	.	.	.	.	.	.	.	4e/	plus
=96	=96	=96	=96	=96	=96	=96	=96	=96	=96	=96	=96
2GG/	tard,	2.B-\	tard,	[0Gl	tard.	2r	.	1d	a-	[0gl	tard.
4G\	a-	.	.	.	.	2d\	a-	.	.	.	.
4F\	.	4G/	.	.	.	.	.	.	.	.	.
4E-i\	-vant	1G	.	.	.	2.g\	-vant	1e-i	-vant	.	.
4D\	.	.	.	.	.	.	.	.	.	.	.
[2C/	qu'il	.	.	.	.	.	.	.	.	.	.
.	.	.	.	.	.	4f\	qu'il	.	.	.	.
=97	=97	=97	=97	=97	=97	=97	=97	=97	=97	=97	=97
2C/]	.	2r	.	0G_	.	2e-i\	soit	2c\	qu'il	0g_	.
2BB-/	soit	2G/	a-	.	.	2d\	.	2d\	soit	.	.
1C	plus	2.E-i/	-vant	.	.	1c	plus	1e-i	plus	.	.
.	.	4F/	qu'il	.	.	.	.	.	.	.	.
=98	=98	=98	=98	=98	=98	=98	=98	=98	=98	=98	=98
[0GGl	tard.	1G	soit	0G_	.	[0B-l	tard.	[0dl	tard.	0g_	.
.	.	1D	plus	.	.	.	.	.	.	.	.
=99	=99	=99	=99	=99	=99	=99	=99	=99	=99	=99	=99
0GG]	.	0Gl	tard.	0G]	.	0B-]	.	0d]	.	0g]	.
==	==	==	==	==	==	==	==	==	==	==	==
*-	*-	*-	*-	*-	*-	*-	*-	*-	*-	*-	*-
!!!RDF**kern: l=long note in original notation
!!!RDF**kern: i=editorial accidental
!!!ENC: Will Watson 09/09/2011
!!!END: 2011/09/09/
!!!EED: Jesse Rodin
!!!EEV: 2011/10/07/
!!attribution-level@Jos: 1 (secure, core group [checkmark])
!!!ONB: Translated from MusicXML and edited on 2011/10/07/ by Craig Sapp
!!muse2ps: C^@{COM}\n@{SCT}^i2I150v85,85,85,85,85,100z18l2550t200c135
